src/img/icons/icon-instagram.svg

<?xml version="1.0" encoding="UTF-8"?>
<svg width="36px" height="36px" viewBox="0 0 36 36" version="1.1" xmlns="http://www.w3.org/2000/svg" xmlns:xlink="http://www.w3.org/1999/xlink">
    <!-- Generator: sketchtool 53.2 (72643) - https://sketchapp.com -->
    <title>B78CEBA5-6B9B-4EDE-B182-C5E50DC569BD</title>
    <desc>Created with sketchtool.</desc>
    <defs>
        <polygon id="path-1" points="0 0 19.9999667 0 19.9999667 19.9999933 0 19.9999933"></polygon>
    </defs>
    <g id="Header-&amp;-Footer" stroke="none" stroke-width="1" fill="none" fill-rule="evenodd">
        <g id="Footer/footer-desktop-1280" transform="translate(-284.000000, -261.000000)">
            <g id="icon/social/ico-social-instagram-ghost" transform="translate(284.000000, 261.000000)">
                <circle id="Combined-Shape" stroke="#4489FF" stroke-width="1" fill-rule="nonzero" cx="18" cy="18" r="17.5"></circle>
                <g id="Group-3" stroke-width="1" fill-rule="evenodd" transform="translate(8.000000, 8.000000)">
                    <mask id="mask-2" fill="white">
                        <use xlink:href="#path-1"></use>
                    </mask>
                    <g id="Clip-2"></g>
                    <path d="M18.1333333,10.0162667 C18.1544,10.0162667 18.1755333,10.0162667 18.1966667,10.0162667 C18.1966667,9.59426667 18.2076667,9.17193333 18.1945333,8.7504 C18.1576667,7.56366667 18.1691333,6.3716 18.0542667,5.19206667 C17.8810667,3.41373333 16.8111333,2.31093333 15.0537333,1.9782 C14.7062,1.9124 14.3491333,1.87126667 13.9958,1.86613333 C12.0198,1.8372 10.0435333,1.8068 8.0674,1.8106 C7.114,1.8124 6.15586667,1.8416 5.2084,1.94053333 C3.4932,2.1196 2.3746,3.11886667 2.01946667,4.73393333 C1.92713333,5.15413333 1.8748,5.59073333 1.86746667,6.02086667 C1.83393333,7.9968 1.8066,9.97313333 1.8108,11.9492667 C1.8128,12.9026667 1.84113333,13.8610667 1.94253333,14.8080667 C2.133,16.5867333 3.18446667,17.7314667 4.94826667,18.0081333 C5.92926667,18.1620667 6.93826667,18.1787333 7.935,18.1832667 C9.9998,18.1926667 12.0658667,18.1868667 14.1295333,18.1242 C16.6999333,18.0461333 18.0408,16.6913333 18.1254,14.1121333 C18.1701333,12.7482 18.1333333,11.3816 18.1333333,10.0162667 M0,13.5333333 L0,6.46666667 C0.0239333333,6.1818 0.0565333333,5.8974 0.0705333333,5.61213333 C0.223666667,2.48913333 2.0862,0.483733333 5.18453333,0.116133333 C5.61053333,0.0655333333 6.0392,0.0381333333 6.46666667,0 L13.5333333,0 C13.8176,0.024 14.1014,0.0566666667 14.3861333,0.0706 C17.5103333,0.2232 19.5160667,2.08506667 19.8831333,5.1828 C19.9336667,5.60933333 19.9616,6.0386 20,6.46666667 L20,13.5333333 C19.9761333,13.8182 19.9437333,14.1026667 19.9295333,14.3880667 C19.7742,17.5137333 17.9168667,19.5136667 14.8160667,19.8838 C14.39,19.9346 13.961,19.9618667 13.5333333,20 L6.46666667,20 C6.18226667,19.9760667 5.89826667,19.9436 5.61333333,19.9294667 C2.48753333,19.7748667 0.4818,17.913 0.116266667,14.8172 C0.0658666667,14.3906 0.0382,13.9613333 0,13.5333333" id="Fill-1" fill="#4489FF" mask="url(#mask-2)"></path>
                </g>
                <path d="M17.9972084,21.2446959 C19.7782838,21.2460592 21.2395642,19.7909594 21.2446279,18.010874 C21.2498215,16.2294252 19.7982142,14.7643279 18.0190215,14.7553041 C16.224248,14.7462154 14.7522559,16.2120269 14.7552423,18.0053558 C14.7581636,19.7863501 16.2163278,21.2433326 17.9972084,21.2446959 M22.999995,18.0228191 C22.9961648,20.792014 20.7533796,23.0072531 17.9609183,22.9999822 C15.2111093,22.9927761 12.9961747,20.750206 13.000005,17.9771809 C13.0037703,15.2081158 15.2466853,12.9927469 18.0390168,13.0000178 C20.7889557,13.0072239 23.0038253,15.2496641 22.999995,18.0228191" id="Fill-4" fill="#4489FF" fill-rule="evenodd"></path>
                <path d="M22.9987983,13.9999973 C22.4440967,13.998721 21.9947196,13.5439126 22.0000469,12.9891641 C22.0054296,12.4323069 22.4573594,11.9930362 23.0178322,12.0000836 C23.5650423,12.0069646 23.9978271,12.444959 23.9999913,12.9941584 C24.0022665,13.5524028 23.5554976,14.0012736 22.9987983,13.9999973" id="Fill-6" fill="#4489FF" fill-rule="evenodd"></path>
            </g>
        </g>
    </g>
</svg>

<svg width="36" height="36" xmlns="http://www.w3.org/2000/svg" xmlns:xlink="http://www.w3.org/1999/xlink"><defs><path id="a" d="M0 0h20v20H0z"/></defs><g fill="none" fill-rule="evenodd"><circle stroke="#4489FF" cx="18" cy="18" r="17.5"/><g transform="translate(8 8)"><mask id="b" fill="#fff"><use xlink:href="#a"/></mask><path d="M18.133 10.016h.064c0-.422.01-.844-.002-1.266-.037-1.186-.026-2.378-.14-3.558-.174-1.778-1.244-2.881-3.001-3.214a6.202 6.202 0 0 0-1.058-.112c-1.976-.029-3.952-.06-5.929-.055-.953.001-1.911.03-2.859.13-1.715.179-2.833 1.178-3.189 2.793-.092.42-.144.857-.152 1.287a310.51 310.51 0 0 0-.056 5.928c.002.954.03 1.912.132 2.86.19 1.778 1.241 2.922 3.005 3.2.981.153 1.99.17 2.987.174 2.065.01 4.13.004 6.195-.059 2.57-.078 3.91-1.433 3.995-4.012.045-1.364.008-2.73.008-4.096M0 13.533V6.467c.024-.285.057-.57.07-.855C.225 2.49 2.087.484 5.186.116 5.61.066 6.039.038 6.467 0h7.066c.285.024.568.057.853.07 3.124.153 5.13 2.015 5.497 5.113.05.426.079.856.117 1.284v7.066c-.024.285-.056.57-.07.855-.156 3.126-2.013 5.126-5.114 5.496-.426.05-.855.078-1.283.116H6.467c-.285-.024-.569-.056-.854-.07-3.125-.155-5.131-2.017-5.497-5.113-.05-.426-.078-.856-.116-1.284" fill="#4489FF" mask="url(#b)"/></g><path d="M17.997 21.245a3.255 3.255 0 0 0 3.248-3.234 3.255 3.255 0 0 0-3.226-3.256 3.255 3.255 0 0 0-3.264 3.25 3.255 3.255 0 0 0 3.242 3.24M23 18.023c-.004 2.769-2.247 4.984-5.04 4.977-2.749-.007-4.964-2.25-4.96-5.023.004-2.769 2.247-4.984 5.039-4.977 2.75.007 4.965 2.25 4.961 5.023M22.999 14A1.002 1.002 0 0 1 22 12.99a.997.997 0 0 1 1.018-.99.99.99 0 0 1 .982.994A.997.997 0 0 1 22.999 14" fill="#4489FF"/></g></svg>
